extensions/notebook/resources/light/save.svg

<svg width="16" height="16" viewBox="0 0 16 16" fill="none" xmlns="http://www.w3.org/2000/svg">
<path d="M14 1C14.1406 1 14.2708 1.02604 14.3906 1.07812C14.5104 1.13021 14.6146 1.20312 14.7031 1.29688C14.7969 1.38542 14.8698 1.48958 14.9219 1.60938C14.974 1.72917 15 1.85938 15 2V15H2.78906L1 13.2031V2C1 1.85938 1.02604 1.72917 1.07812 1.60938C1.13021 1.48958 1.20052 1.38542 1.28906 1.29688C1.38281 1.20312 1.48958 1.13021 1.60938 1.07812C1.72917 1.02604 1.85938 1 2 1H14ZM4 7H12V2H4V7ZM10 11H5V14H6V12H7V14H10V11ZM14 2H13V8H3V2H2V12.7891L3.20312 14H4V10H11V14H14V2Z" fill="#015CDA"/>
</svg>

<svg xmlns="http://www.w3.org/2000/svg" width="16" height="16" viewBox="0 0 16 16">
  <title>opac_command_icons_bv</title>
  <path d="M14,1a.972.972,0,0,1,.391.078,1.012,1.012,0,0,1,.316.215,1.024,1.024,0,0,1,.215.316A.972.972,0,0,1,15,2V15H2.789L1,13.2V2a.972.972,0,0,1,.078-.391,1.024,1.024,0,0,1,.215-.316,1.012,1.012,0,0,1,.316-.215A.972.972,0,0,1,2,1Zm0,1H13V8H3V2H2V12.789L3.2,14H4V10h7v4h3ZM4,7h8V2H4Zm6,4H5v3H6V12H7v2h3Z"/>
  <rect width="16" height="16" fill="none"/>
</svg>
